X: 2076
T: At It Again
R: jig
M: 6/8
K: Dmajor
A,|D3 FEF|DFA BAF|A2d BAF|A3-A zd-|
dBA FBA|FED B,2A,|D2F EDB,|D3-D2z|
d2d BAF|A2B AFD|d2d BAF|A3-A de|
fed BdB|AFD B,2A,|D2F EDB,|D3-D2||

